svg/OSM-icons/office #0b0b61 °ffffff !label=enoffices,deBüros/25049;office=notary;[addr];[contact];!label=ennotary office,deNotar.svg

<svg xmlns="http://www.w3.org/2000/svg" viewBox="0 0 580 580" enable-background="new 0 0 580 580"><path fill="#111" stroke="#eee" stroke-width="3.408" d="m66.28 1.768c-41.34 0-64.57 21.371-64.57 65.04v450.12c0 40.844 20.894 62.23 62.19 62.23h452.02c41.31 0 62.23-20.316 62.23-62.23v-450.12c0-42.601-20.923-65.04-63.52-65.04-.003 0-448.49-.143-448.35 0z"/><g fill="#fff"><path d="m309.09 427.58h-66.46c1.362-3.477 2.116-7.256 2.116-11.215v-32.546l-2.429-29.659c-4.677-11.03-15.604-18.766-28.338-18.766h-64.775c-12.734 0-23.661 7.737-28.338 18.767l-2.429 29.657v32.547c0 3.959.754 7.738 2.116 11.215h-66.45v22.498 9 77.996h10.5v-77.996h233.99v77.996h10.498v-77.996h.002v-31.498m-88.63-50.891v50.891h-7.287v-50.891h7.287m-77.73 0h7.288v50.891h-7.288v-50.891"/><circle cx="181.6" cy="284.66" r="37.65"/><path d="m283.99 141.08c-6.289-4.947-12.681-14.249-11.807-31.489 9.959-4.36 16.921-14.296 16.921-25.864 0-15.589-12.638-28.23-28.23-28.23-15.588 0-28.23 12.637-28.23 28.23 0 11.567 6.962 21.504 16.922 25.864.873 17.24-5.518 26.542-11.807 31.489h-56.16l5.711 23.421h148.03l4.811-23.421h-56.16"/><path d="m386.05 37.5h-28.5v272.9h182v-28.5-244.4h-153.5m126.5 224.66h-126.5v-5h126.5v5m0-24.88h-126.5v-5h126.5v5m0-24.881h-126.5v-5h126.5v5m0-24.881h-126.5v-5h126.5v5m0-24.88h-126.5v-5h126.5v5m0-24.881h-126.5v-5h126.5v5m0-24.881h-126.5v-5h126.5v5m0-24.88h-126.5v-5h126.5v5"/></g></svg>

<?xml version="1.0" encoding="utf-8"?>
<!-- Generator: Adobe Illustrator 15.0.0, SVG Export Plug-In . SVG Version: 6.00 Build 0)  -->
<!DOCTYPE svg PUBLIC "-//W3C//DTD SVG 1.1//EN" "http://www.w3.org/Graphics/SVG/1.1/DTD/svg11.dtd">
<svg version="1.1" xmlns="http://www.w3.org/2000/svg" xmlns:xlink="http://www.w3.org/1999/xlink" x="0px" y="0px" width="580px"
	 height="580px" viewBox="0 0 580 580" enable-background="new 0 0 580 580" xml:space="preserve">
<g id="Layer_2">
	<g id="g1327">
		<path id="path1329" fill="#111111" stroke="#EEEEEE" stroke-width="3.408" d="M66.275,1.768
			c-41.335,0-64.571,21.371-64.571,65.036v450.123c0,40.844,20.894,62.229,62.192,62.229H515.92
			c41.307,0,62.229-20.316,62.229-62.229V66.804c0-42.601-20.923-65.036-63.522-65.036C514.624,1.768,66.133,1.625,66.275,1.768z"/>
	</g>
</g>
<g id="svg2" inkscape:version="0.46" sodipodi:docname="waste_bin.svg" sodipodi:version="0.32" inkscape:output_extension="org.inkscape.output.svg.inkscape" xmlns:sodipodi="http://sodipodi.sourceforge.net/DTD/sodipodi-0.dtd" xmlns:inkscape="http://www.inkscape.org/namespaces/inkscape" xmlns:cc="http://creativecommons.org/ns#" xmlns:rdf="http://www.w3.org/1999/02/22-rdf-syntax-ns#" xmlns:svg="http://www.w3.org/2000/svg" xmlns:dc="http://purl.org/dc/elements/1.1/">
	<g>
		<path fill="#FFFFFF" d="M309.094,427.584h-66.456c1.362-3.477,2.116-7.256,2.116-11.215v-32.546l-2.429-29.659
			c-4.677-11.028-15.604-18.766-28.338-18.766h-64.775c-12.734,0-23.661,7.737-28.338,18.767l-2.429,29.657v32.547
			c0,3.959,0.754,7.738,2.116,11.215H54.106v22.498v9v77.996h10.5v-77.996h233.988v77.996h10.498v-77.996h0.002V427.584z
			 M220.464,376.693v50.891h-7.287v-50.891H220.464z M142.735,376.693h7.288v50.891h-7.288V376.693z"/>
		<circle fill="#FFFFFF" cx="181.6" cy="284.664" r="37.65"/>
	</g>
	<path fill="#FFFFFF" d="M283.985,141.079c-6.289-4.947-12.681-14.249-11.807-31.489c9.959-4.36,16.921-14.296,16.921-25.864
		c0-15.589-12.638-28.226-28.227-28.226c-15.588,0-28.227,12.637-28.227,28.226c0,11.567,6.962,21.504,16.922,25.864
		c0.873,17.24-5.518,26.542-11.807,31.489H181.6l5.711,23.421h148.025l4.811-23.421H283.985z"/>
	<path fill="#FFFFFF" d="M386.046,37.5h-28.5v272.898h182v-28.5V37.5H386.046z M512.546,262.164h-126.5v-5h126.5V262.164z
		 M512.546,237.284h-126.5v-5h126.5V237.284z M512.546,212.403h-126.5v-5h126.5V212.403z M512.546,187.522h-126.5v-5h126.5V187.522z
		 M512.546,162.642h-126.5v-5h126.5V162.642z M512.546,137.761h-126.5v-5h126.5V137.761z M512.546,112.88h-126.5v-5h126.5V112.88z
		 M512.546,88h-126.5v-5h126.5V88z"/>
</g>
</svg>
